logos/database.svg

<svg id="ezck9ma760km1" xmlns="http://www.w3.org/2000/svg" xmlns:xlink="http://www.w3.org/1999/xlink" viewBox="0 0 499.170000 498.380000" shape-rendering="geometricPrecision" text-rendering="geometricPrecision">
    <style>
        <![CDATA[#ezck9ma760km4_to {animation: ezck9ma760km4_to__to 5000ms linear infinite normal forwards}@keyframes ezck9ma760km4_to__to { 0% {transform: translate(330.640859px,289.527196px);animation-timing-function: cubic-bezier(0.445000,0.050000,0.550000,0.950000)} 16% {transform: translate(178.283203px,199.933594px);animation-timing-function: cubic-bezier(0.445000,0.050000,0.550000,0.950000)} 66% {transform: translate(178.283203px,199.933594px);animation-timing-function: cubic-bezier(0.445000,0.050000,0.550000,0.950000)} 80% {transform: translate(330.640859px,289.527196px)} 100% {transform: translate(330.640859px,289.527196px)} }#ezck9ma760km16_ts {animation: ezck9ma760km16_ts__ts 5000ms linear infinite normal forwards}@keyframes ezck9ma760km16_ts__ts { 0% {transform: translate(184.362724px,136.917577px) scale(0,0);animation-timing-function: cubic-bezier(0.445000,0.050000,0.550000,0.950000)} 78% {transform: translate(184.362724px,136.917577px) scale(0,0);animation-timing-function: cubic-bezier(0.445000,0.050000,0.550000,0.950000)} 84% {transform: translate(184.362724px,136.917577px) scale(1,1);animation-timing-function: cubic-bezier(0.445000,0.050000,0.550000,0.950000)} 86% {transform: translate(184.362724px,136.917577px) scale(1,1);animation-timing-function: cubic-bezier(0.445000,0.050000,0.550000,0.950000)} 94% {transform: translate(184.362724px,136.917577px) scale(0,0)} 100% {transform: translate(184.362724px,136.917577px) scale(0,0)} }#ezck9ma760km16 {animation: ezck9ma760km16_c_o 5000ms linear infinite normal forwards}@keyframes ezck9ma760km16_c_o { 0% {opacity: 1} 84% {opacity: 1;animation-timing-function: cubic-bezier(0,0,0.580000,1)} 94% {opacity: 0} 100% {opacity: 0} }]]>
    </style>
    <defs>
        <radialGradient id="ezck9ma760km16-fill" cx="152.007300" cy="109.105600" r="71.599900" spreadMethod="pad" gradientUnits="userSpaceOnUse">
            <stop id="ezck9ma760km16-fill-0" offset="0%" stop-color="rgb(255,243,59)" />
            <stop id="ezck9ma760km16-fill-1" offset="5.950000%" stop-color="rgb(255,224,41)" />
            <stop id="ezck9ma760km16-fill-2" offset="13.030000%" stop-color="rgb(255,210,23)" />
            <stop id="ezck9ma760km16-fill-3" offset="20.320000%" stop-color="rgb(254,201,14)" />
            <stop id="ezck9ma760km16-fill-4" offset="28.090000%" stop-color="rgb(253,199,12)" />
            <stop id="ezck9ma760km16-fill-5" offset="66.850000%" stop-color="rgb(243,144,63)" />
            <stop id="ezck9ma760km16-fill-6" offset="88.760000%" stop-color="rgb(237,104,60)" />
            <stop id="ezck9ma760km16-fill-7" offset="100%" stop-color="rgb(233,62,58)" />
        </radialGradient>
    </defs>
    <g id="ezck9ma760km2">
        <path
            id="ezck9ma760km3"
            d="M498.100000,249.400000C498.100000,311.730000,498.100000,374.060000,498.100000,436.390000C498.100000,464.960000,476.550000,491.080000,448.410000,496.430000C444.250000,497.220000,439.950000,497.670000,435.720000,497.670000C311.480000,497.740000,187.240000,497.720000,63,497.720000C32.550000,497.720000,5.960000,474.360000,1.970000,444.050000C1.620000,441.380000,1.380000,438.660000,1.380000,435.970000C1.340000,311.420000,1.350000,186.860000,1.350000,62.310000C1.350000,33.730000,22.910000,7.610000,51.040000,2.270000C55.200000,1.480000,59.500000,1.030000,63.730000,1.030000C188.080000,0.970000,312.420000,0.980000,436.770000,0.980000C465.340000,0.980000,491.500000,22.560000,496.810000,50.670000C497.600000,54.830000,498.050000,59.130000,498.050000,63.360000C498.120000,125.370000,498.100000,187.390000,498.100000,249.400000Z"
            fill="#ffcb28"
            stroke="none"
            stroke-width="1"
        />
    </g>
    <g id="ezck9ma760km4_to" transform="translate(330.640859,289.527196)">
        <g id="ezck9ma760km4" transform="translate(-178.283203,-199.933594)">
            <g id="ezck9ma760km5">
                <path
                    id="ezck9ma760km6"
                    d="M301.150000,93.750000C301,90.710000,299.460000,87.420000,297.710000,84.820000C291.330000,75.350000,281.510000,70.410000,271.380000,66.150000C249.560000,56.970000,226.490000,53.240000,203.120000,51.460000C172.620000,49.130000,142.280000,50.720000,112.390000,57.620000C96,61.410000,80.010000,66.390000,66.400000,76.880000C59.110000,82.500000,54.790000,89.480000,55.200000,99.210000C55.630000,109.470000,55.450000,119.770000,55.250000,130.050000C55.120000,136.890000,57.590000,142.440000,62.300000,147.180000C70.870000,155.810000,81.650000,160.590000,92.860000,164.560000C111.600000,171.210000,131.040000,174.590000,150.770000,176.040000C164.370000,177.040000,178.040000,177,191.510000,177.430000C191.990000,176.340000,192.320000,175.900000,192.390000,175.410000C193.960000,163.910000,200.700000,155.750000,209.550000,149.030000C221.970000,139.600000,236.180000,133.750000,251.160000,130.230000C267.560000,126.380000,284.230000,123.700000,301.310000,120.410000C301.310000,111.930000,301.600000,102.820000,301.150000,93.750000Z"
                    fill="#f6e9c4"
                    stroke="#01507b"
                    stroke-width="10"
                    stroke-miterlimit="10"
                />
                <path
                    id="ezck9ma760km7"
                    d="M180.680000,198.450000C152.060000,198.640000,123.770000,196.030000,96.440000,187.110000C80.270000,181.830000,64.230000,175.830000,55.290000,158.680000C55.290000,177.530000,55.590000,195.720000,55.170000,213.910000C54.940000,223.770000,59.070000,230.830000,66.480000,236.590000C76.820000,244.640000,88.790000,249.250000,101.180000,252.850000C128.900000,260.900000,157.310000,263.240000,186.040000,262.780000C187.950000,262.750000,189.860000,262.580000,191.870000,262.470000C191.870000,241,191.870000,219.940000,191.870000,198.450000C187.910000,198.450000,184.300000,198.430000,180.680000,198.450000Z"
                    fill="#f6e9c4"
                    stroke="#01507b"
                    stroke-width="10"
                    stroke-miterlimit="10"
                />
                <path
                    id="ezck9ma760km8"
                    d="M187.020000,284.970000C168.510000,285.420000,150.080000,284.620000,131.760000,281.820000C114.250000,279.150000,97.030000,275.310000,80.910000,267.710000C70.470000,262.790000,60.590000,257.050000,55.300000,245.620000C55.300000,264.360000,55.440000,283.100000,55.230000,301.840000C55.150000,309.120000,57.670000,315.010000,62.790000,319.950000C71.620000,328.470000,82.520000,333.330000,93.910000,337.150000C123.620000,347.110000,154.330000,349.800000,185.440000,349.370000C187.490000,349.340000,189.550000,349.190000,191.780000,349.080000C191.780000,327.630000,191.780000,306.480000,191.780000,284.960000C190.070000,284.970000,188.540000,284.930000,187.020000,284.970000Z"
                    fill="#f6e9c4"
                    stroke="#01507b"
                    stroke-width="10"
                    stroke-miterlimit="10"
                />
            </g>
        </g>
    </g>
    <g id="ezck9ma760km9">
        <g id="ezck9ma760km10">
            <path
                id="ezck9ma760km11"
                d="M441.430000,137.620000C434.980000,134.330000,428.260000,131.410000,421.420000,129.060000C395.070000,120.030000,367.770000,116.450000,340.050000,115.350000C307.360000,114.060000,275.010000,116.450000,243.260000,124.620000C226.810000,128.850000,210.860000,134.420000,197.190000,145.020000C188.860000,151.480000,183.950000,159.420000,184.390000,170.530000C184.800000,180.780000,184.310000,191.060000,184.520000,201.320000C184.490000,242.970000,184.360000,385.270000,184.700000,405.480000C184.770000,409.380000,186.460000,413.710000,188.640000,417.030000C195.800000,427.940000,207.020000,433.670000,218.620000,438.470000C249.120000,451.090000,281.320000,455.560000,313.950000,456C334.530000,456.280000,355.210000,454.630000,375.730000,452.670000C395.720000,450.750000,415.200000,445.780000,433.620000,437.580000C447.190000,431.540000,459.970000,424.290000,465.610000,409.170000C465.610000,388.910000,465.610000,267.390000,465.610000,212.840000C465.610000,204.980000,465.610000,197.110000,465.610000,189.250000C465.610000,180.160000,465.610000,171.060000,465.610000,161.970000C461.170000,150.230000,452.060000,143.040000,441.430000,137.620000ZM198.400000,182.010000C198,172.010000,202.430000,164.860000,209.930000,159.050000C222.240000,149.510000,236.600000,144.500000,251.410000,140.690000C279.990000,133.330000,309.110000,131.180000,338.540000,132.340000C363.490000,133.330000,388.070000,136.560000,411.790000,144.680000C417.960000,146.790000,424,149.420000,429.810000,152.380000C439.390000,157.260000,447.590000,163.730000,451.550000,174.290000C451.550000,189.550000,451.550000,204.820000,451.550000,220.080000C446.150000,233.640000,434.540000,240.220000,422.160000,245.600000C402.750000,254.030000,382.190000,257.960000,361.260000,260.250000C339.640000,262.620000,317.980000,262.880000,296.330000,260.970000C270.530000,258.700000,245.180000,254.350000,221.690000,242.640000C214.340000,238.980000,207.150000,234.740000,202.780000,227.590000C200.520000,223.890000,198.920000,219.250000,198.700000,214.940000C198.130000,203.980000,198.840000,192.970000,198.400000,182.010000ZM451.550000,396.820000C446.470000,410.430000,434.970000,416.960000,422.760000,422.400000C406.170000,429.790000,388.640000,434.260000,370.640000,435.990000C352.170000,437.760000,333.560000,439.240000,315.030000,438.990000C285.660000,438.590000,256.670000,434.570000,229.210000,423.210000C218.770000,418.890000,208.670000,413.730000,202.230000,403.910000C200.270000,400.920000,198.750000,397.020000,198.690000,393.510000C198.350000,373.570000,198.520000,353.620000,198.530000,333.680000C198.530000,333.350000,198.700000,333.030000,198.880000,332.350000C205.500000,346.720000,218.330000,352.850000,231.530000,358.120000C252.420000,366.460000,274.400000,370.170000,296.730000,371.990000C318.530000,373.760000,340.310000,373.570000,362.050000,371.170000C381.500000,369.020000,400.630000,365.330000,418.830000,357.960000C432.480000,352.430000,445.320000,345.610000,451.550000,330.950000C451.550000,352.900000,451.550000,374.860000,451.550000,396.820000ZM453.760000,307.640000C448.570000,321.760000,436.580000,328.320000,423.940000,333.760000C403.490000,342.560000,381.830000,346.440000,359.790000,348.610000C340.960000,350.460000,322.110000,350.780000,303.260000,349.340000C275.940000,347.260000,249.100000,342.990000,224.170000,330.770000C216.430000,326.980000,209.070000,322.370000,204.450000,314.830000C202.510000,311.660000,200.950000,307.670000,200.890000,304.020000C200.550000,283.950000,200.730000,263.860000,200.730000,243.440000C212.470000,263.930000,232.940000,269.810000,253.200000,275.290000C281.940000,283.080000,311.400000,285.010000,341.110000,283.780000C365.120000,282.790000,388.770000,279.710000,411.700000,272.270000C423.190000,268.550000,434.540000,264.170000,443.460000,255.760000C447.610000,251.850000,450.380000,246.460000,453.770000,241.750000C453.760000,263.730000,453.760000,285.690000,453.760000,307.640000Z"
                fill="#01507b"
                stroke="none"
                stroke-width="1"
            />
            <path
                id="ezck9ma760km12"
                d="M198.690000,214.930000C198.910000,219.230000,200.510000,223.880000,202.770000,227.580000C207.150000,234.730000,214.340000,238.970000,221.680000,242.630000C245.170000,254.340000,270.520000,258.690000,296.320000,260.960000C317.970000,262.870000,339.630000,262.610000,361.250000,260.240000C382.180000,257.950000,402.740000,254.020000,422.150000,245.590000C434.530000,240.210000,446.140000,233.630000,451.540000,220.070000C451.540000,204.810000,451.540000,189.540000,451.540000,174.280000C447.570000,163.720000,439.370000,157.250000,429.800000,152.370000C423.990000,149.410000,417.950000,146.780000,411.780000,144.670000C388.060000,136.540000,363.480000,133.310000,338.530000,132.330000C309.100000,131.170000,279.980000,133.320000,251.400000,140.680000C236.600000,144.490000,222.230000,149.500000,209.920000,159.040000C202.420000,164.850000,198,172.010000,198.390000,182C198.840000,192.970000,198.130000,203.980000,198.690000,214.930000Z"
                fill="#fff"
                stroke="none"
                stroke-width="1"
            />
            <path
                id="ezck9ma760km13"
                d="M418.820000,357.950000C400.620000,365.320000,381.490000,369.010000,362.040000,371.160000C340.300000,373.560000,318.520000,373.760000,296.720000,371.980000C274.390000,370.170000,252.420000,366.450000,231.520000,358.110000C218.320000,352.840000,205.490000,346.710000,198.870000,332.340000C198.680000,333.020000,198.520000,333.340000,198.520000,333.670000C198.510000,353.610000,198.340000,373.560000,198.680000,393.500000C198.740000,397.010000,200.260000,400.910000,202.220000,403.900000C208.660000,413.720000,218.770000,418.880000,229.200000,423.200000C256.660000,434.560000,285.640000,438.580000,315.020000,438.980000C333.550000,439.230000,352.160000,437.750000,370.630000,435.980000C388.620000,434.250000,406.160000,429.780000,422.750000,422.390000C434.970000,416.950000,446.470000,410.420000,451.540000,396.810000C451.540000,374.850000,451.540000,352.890000,451.540000,330.930000C445.320000,345.600000,432.480000,352.420000,418.820000,357.950000Z"
                fill="#fff"
                stroke="none"
                stroke-width="1"
            />
            <path
                id="ezck9ma760km14"
                d="M411.700000,272.290000C388.770000,279.720000,365.120000,282.810000,341.110000,283.800000C311.400000,285.020000,281.940000,283.100000,253.200000,275.310000C232.950000,269.820000,212.480000,263.950000,200.730000,243.460000C200.730000,263.880000,200.550000,283.970000,200.890000,304.040000C200.950000,307.690000,202.510000,311.680000,204.450000,314.850000C209.070000,322.380000,216.430000,326.990000,224.170000,330.790000C249.100000,343.010000,275.950000,347.280000,303.260000,349.360000C322.110000,350.800000,340.960000,350.480000,359.790000,348.630000C381.830000,346.460000,403.490000,342.580000,423.940000,333.780000C436.580000,328.340000,448.570000,321.790000,453.760000,307.660000C453.760000,285.700000,453.760000,263.740000,453.760000,241.780000C450.370000,246.500000,447.600000,251.880000,443.450000,255.790000C434.530000,264.190000,423.180000,268.560000,411.700000,272.290000Z"
                fill="#fff"
                stroke="none"
                stroke-width="1"
            />
        </g>
    </g>
    <g id="ezck9ma760km15">
        <g id="ezck9ma760km16_ts" transform="translate(184.362724,136.917577) scale(0,0)">
            <polygon
                id="ezck9ma760km16"
                points="215.980000,160.290000 166.700000,148.010000 128.650000,181.640000 125.100000,130.980000 81.350000,105.180000 128.440000,86.150000 139.460000,36.570000 172.110000,75.470000 222.660000,70.630000 195.750000,113.700000"
                transform="translate(-152.005000,-115.021384)"
                fill="url(#ezck9ma760km16-fill)"
                stroke="#01507b"
                stroke-width="4"
                stroke-opacity="0"
                stroke-miterlimit="10"
            />
        </g>
    </g>
</svg>

<svg id="database" xmlns="http://www.w3.org/2000/svg" viewBox="0 0 499.17 498.38" width="500" height="500" shape-rendering="geometricPrecision" text-rendering="geometricPrecision">
  <style>
    @keyframes back_database_animation__to{0%{transform:translate(330.640859px,289.527196px);animation-timing-function:cubic-bezier(.445,.05,.55,.95)}16%,66%{transform:translate(178.283203px,199.933594px);animation-timing-function:cubic-bezier(.445,.05,.55,.95)}80%,to{transform:translate(330.640859px,289.527196px)}}@keyframes star_animation__ts{0%,78%{transform:translate(184.362724px,136.917577px) scale(0,0);animation-timing-function:cubic-bezier(.445,.05,.55,.95)}84%,86%{transform:translate(184.362724px,136.917577px) scale(1,1);animation-timing-function:cubic-bezier(.445,.05,.55,.95)}94%,to{transform:translate(184.362724px,136.917577px) scale(0,0)}}@keyframes star_c_o{0%{opacity:1}84%{opacity:1;animation-timing-function:cubic-bezier(0,0,.58,1)}94%,to{opacity:0}}#back_database_animation{animation:back_database_animation__to 5000ms linear infinite normal forwards}#star_animation{animation:star_animation__ts 5000ms linear infinite normal forwards}#star{animation:star_c_o 5000ms linear infinite normal forwards}
  </style>
  <defs>
    <radialGradient id="star-fill" cx="152.007" cy="109.106" r="71.6" spreadMethod="pad" gradientUnits="userSpaceOnUse">
      <stop id="star-fill-0" offset="0%" stop-color="#FFF33B"/>
      <stop id="star-fill-1" offset="5.95%" stop-color="#FFE029"/>
      <stop id="star-fill-2" offset="13.03%" stop-color="#FFD217"/>
      <stop id="star-fill-3" offset="20.32%" stop-color="#FEC90E"/>
      <stop id="star-fill-4" offset="28.09%" stop-color="#FDC70C"/>
      <stop id="star-fill-5" offset="66.85%" stop-color="#F3903F"/>
      <stop id="star-fill-6" offset="88.76%" stop-color="#ED683C"/>
      <stop id="star-fill-7" offset="100%" stop-color="#E93E3A"/>
    </radialGradient>
  </defs>
  <g id="background">
    <path id="square" d="M498.1 249.4v186.99c0 28.57-21.55 54.69-49.69 60.04-4.16.79-8.46 1.24-12.69 1.24-124.24.07-248.48.05-372.72.05-30.45 0-57.04-23.36-61.03-53.67-.35-2.67-.59-5.39-.59-8.08-.04-124.55-.03-249.11-.03-373.66 0-28.58 21.56-54.7 49.69-60.04 4.16-.79 8.46-1.24 12.69-1.24C188.08.97 312.42.98 436.77.98c28.57 0 54.73 21.58 60.04 49.69.79 4.16 1.24 8.46 1.24 12.69.07 62.01.05 124.03.05 186.04z" fill="EB452B" stroke="none" stroke-width="1"/>
  </g>
  <g id="back_database_animation" transform="translate(330.64 289.527)">
    <g id="back_database_top" transform="translate(-178.283 -199.934)">
      <g id="back_database_group" fill="#FFF" stroke="#000" stroke-width="10" stroke-miterlimit="10">
        <path id="back_database_top" d="M301.15 93.75c-.15-3.04-1.69-6.33-3.44-8.93-6.38-9.47-16.2-14.41-26.33-18.67-21.82-9.18-44.89-12.91-68.26-14.69-30.5-2.33-60.84-.74-90.73 6.16C96 61.41 80.01 66.39 66.4 76.88c-7.29 5.62-11.61 12.6-11.2 22.33.43 10.26.25 20.56.05 30.84-.13 6.84 2.34 12.39 7.05 17.13 8.57 8.63 19.35 13.41 30.56 17.38 18.74 6.65 38.18 10.03 57.91 11.48 13.6 1 27.27.96 40.74 1.39.48-1.09.81-1.53.88-2.02 1.57-11.5 8.31-19.66 17.16-26.38 12.42-9.43 26.63-15.28 41.61-18.8 16.4-3.85 33.07-6.53 50.15-9.82 0-8.48.29-17.59-.16-26.66z"/>
        <path id="back_database_middle" d="M180.68 198.45c-28.62.19-56.91-2.42-84.24-11.34-16.17-5.28-32.21-11.28-41.15-28.43 0 18.85.3 37.04-.12 55.23-.23 9.86 3.9 16.92 11.31 22.68 10.34 8.05 22.31 12.66 34.7 16.26 27.72 8.05 56.13 10.39 84.86 9.93 1.91-.03 3.82-.2 5.83-.31v-64.02c-3.96 0-7.57-.02-11.19 0z"/>
        <path id="back_database_bottom" d="M187.02 284.97c-18.51.45-36.94-.35-55.26-3.15-17.51-2.67-34.73-6.51-50.85-14.11-10.44-4.92-20.32-10.66-25.61-22.09 0 18.74.14 37.48-.07 56.22-.08 7.28 2.44 13.17 7.56 18.11 8.83 8.52 19.73 13.38 31.12 17.2 29.71 9.96 60.42 12.65 91.53 12.22 2.05-.03 4.11-.18 6.34-.29v-64.12c-1.71.01-3.24-.03-4.76.01z"/>
      </g>
    </g>
  </g>
  <g id="front_database_top">
    <g id="front_database_group" stroke="none" stroke-width="1">
      <path id="front_database_border" d="M441.43 137.62c-6.45-3.29-13.17-6.21-20.01-8.56-26.35-9.03-53.65-12.61-81.37-13.71-32.69-1.29-65.04 1.1-96.79 9.27-16.45 4.23-32.4 9.8-46.07 20.4-8.33 6.46-13.24 14.4-12.8 25.51.41 10.25-.08 20.53.13 30.79-.03 41.65-.16 183.95.18 204.16.07 3.9 1.76 8.23 3.94 11.55 7.16 10.91 18.38 16.64 29.98 21.44 30.5 12.62 62.7 17.09 95.33 17.53 20.58.28 41.26-1.37 61.78-3.33 19.99-1.92 39.47-6.89 57.89-15.09 13.57-6.04 26.35-13.29 31.99-28.41V212.84v-23.59-27.28c-4.44-11.74-13.55-18.93-24.18-24.35zM198.4 182.01c-.4-10 4.03-17.15 11.53-22.96 12.31-9.54 26.67-14.55 41.48-18.36 28.58-7.36 57.7-9.51 87.13-8.35 24.95.99 49.53 4.22 73.25 12.34 6.17 2.11 12.21 4.74 18.02 7.7 9.58 4.88 17.78 11.35 21.74 21.91v45.79c-5.4 13.56-17.01 20.14-29.39 25.52-19.41 8.43-39.97 12.36-60.9 14.65-21.62 2.37-43.28 2.63-64.93.72-25.8-2.27-51.15-6.62-74.64-18.33-7.35-3.66-14.54-7.9-18.91-15.05-2.26-3.7-3.86-8.34-4.08-12.65-.57-10.96.14-21.97-.3-32.93zm253.15 214.81c-5.08 13.61-16.58 20.14-28.79 25.58-16.59 7.39-34.12 11.86-52.12 13.59-18.47 1.77-37.08 3.25-55.61 3-29.37-.4-58.36-4.42-85.82-15.78-10.44-4.32-20.54-9.48-26.98-19.3-1.96-2.99-3.48-6.89-3.54-10.4-.34-19.94-.17-39.89-.16-59.83 0-.33.17-.65.35-1.33 6.62 14.37 19.45 20.5 32.65 25.77 20.89 8.34 42.87 12.05 65.2 13.87 21.8 1.77 43.58 1.58 65.32-.82 19.45-2.15 38.58-5.84 56.78-13.21 13.65-5.53 26.49-12.35 32.72-27.01v65.87zm2.21-89.18c-5.19 14.12-17.18 20.68-29.82 26.12-20.45 8.8-42.11 12.68-64.15 14.85-18.83 1.85-37.68 2.17-56.53.73-27.32-2.08-54.16-6.35-79.09-18.57-7.74-3.79-15.1-8.4-19.72-15.94-1.94-3.17-3.5-7.16-3.56-10.81-.34-20.07-.16-40.16-.16-60.58 11.74 20.49 32.21 26.37 52.47 31.85 28.74 7.79 58.2 9.72 87.91 8.49 24.01-.99 47.66-4.07 70.59-11.51 11.49-3.72 22.84-8.1 31.76-16.51 4.15-3.91 6.92-9.3 10.31-14.01-.01 21.98-.01 43.94-.01 65.89z" fill="#000"/>
      <path id="front_database_top" d="M198.69 214.93c.22 4.3 1.82 8.95 4.08 12.65 4.38 7.15 11.57 11.39 18.91 15.05 23.49 11.71 48.84 16.06 74.64 18.33 21.65 1.91 43.31 1.65 64.93-.72 20.93-2.29 41.49-6.22 60.9-14.65 12.38-5.38 23.99-11.96 29.39-25.52v-45.79c-3.97-10.56-12.17-17.03-21.74-21.91-5.81-2.96-11.85-5.59-18.02-7.7-23.72-8.13-48.3-11.36-73.25-12.34-29.43-1.16-58.55.99-87.13 8.35-14.8 3.81-29.17 8.82-41.48 18.36-7.5 5.81-11.92 12.97-11.53 22.96.45 10.97-.26 21.98.3 32.93z" fill="#FFF"/>
      <path id="front_database_bottom" d="M418.82 357.95c-18.2 7.37-37.33 11.06-56.78 13.21-21.74 2.4-43.52 2.6-65.32.82-22.33-1.81-44.3-5.53-65.2-13.87-13.2-5.27-26.03-11.4-32.65-25.77-.19.68-.35 1-.35 1.33-.01 19.94-.18 39.89.16 59.83.06 3.51 1.58 7.41 3.54 10.4 6.44 9.82 16.55 14.98 26.98 19.3 27.46 11.36 56.44 15.38 85.82 15.78 18.53.25 37.14-1.23 55.61-3 17.99-1.73 35.53-6.2 52.12-13.59 12.22-5.44 23.72-11.97 28.79-25.58v-65.88c-6.22 14.67-19.06 21.49-32.72 27.02z" fill="#FFF"/>
      <path id="front_database_middle" d="M411.7 272.29c-22.93 7.43-46.58 10.52-70.59 11.51-29.71 1.22-59.17-.7-87.91-8.49-20.25-5.49-40.72-11.36-52.47-31.85 0 20.42-.18 40.51.16 60.58.06 3.65 1.62 7.64 3.56 10.81 4.62 7.53 11.98 12.14 19.72 15.94 24.93 12.22 51.78 16.49 79.09 18.57 18.85 1.44 37.7 1.12 56.53-.73 22.04-2.17 43.7-6.05 64.15-14.85 12.64-5.44 24.63-11.99 29.82-26.12v-65.88c-3.39 4.72-6.16 10.1-10.31 14.01-8.92 8.4-20.27 12.77-31.75 16.5z" fill="#FFF"/>
    </g>
  </g>
  <g id="star_group">
    <g id="star_animation" transform="matrix(0 0 0 0 184.363 136.918)">
      <path id="star" transform="translate(-152.005 -115.021)" fill="url(#star-fill)" stroke="#000" stroke-width="4" stroke-miterlimit="10" d="M215.98 160.29l-49.28-12.28-38.05 33.63-3.55-50.66-43.75-25.8 47.09-19.03 11.02-49.58 32.65 38.9 50.55-4.84-26.91 43.07z"/>
    </g>
  </g>
</svg>
